X: 12194
T: Factory Girl, The
R: waltz
M: 3/4
K: Gmajor
d2|e2 e3 B|B2 d3 B|A4 BA|G2 E2 d2|
e2 e3 B|B d4 B|A3 G A2|B4 d|
e2 e3 B|B d4 B|A4 BA|G2 E2 EF|
G3 A B|e2 B2 cB|A2 E3F|E4||

